;FLAVOR:Marlin
;TIME:2297
;Filament used: 0.40068m
;Layer height: 0.12
;MINX:98.06
;MINY:95.06
;MINZ:0.12
;MAXX:121.94
;MAXY:120.94
;MAXZ:9.96
;Generated with Cura_SteamEngine 4.13.1
M140 S80
M105
M190 S80
M104 S220
M105
M109 S220
M82 ;absolute extrusion mode
; Ender 3 Custom Start G-code
G92 E0 ; Reset Extruder
G28 ; Home all axes
G1 Z2.0 F3000 ; Move Z Axis up little to prevent scratching of Heat Bed
G1 X0.1 Y20 Z0.3 F5000.0 ; Move to start position
G1 X0.1 Y200.0 Z0.3 F1500.0 E15 ; Draw the first line
G1 X0.4 Y200.0 Z0.3 F5000.0 ; Move to side a little
G1 X0.4 Y20 Z0.3 F1500.0 E30 ; Draw the second line
G92 E0 ; Reset Extruder
G1 Z2.0 F3000 ; Move Z Axis up little to prevent scratching of Heat Bed
G1 X5 Y20 Z0.3 F5000.0 ; Move over to prevent blob squish
G92 E0
G92 E0
G1 F600 E-4
;LAYER_COUNT:83
;LAYER:0
M107
G0 F6000 X100.115 Y97.393 Z0.12
;TYPE:SKIRT
G1 F600 E0
G1 F1200 X100.3 Y97.206 E0.00577
G1 X100.812 Y96.746 E0.02088
G1 X101.135 Y96.502 E0.02977
G1 X101.343 Y96.356 E0.03535
G1 X102.235 Y95.84 E0.05797
G1 X102.491 Y95.72 E0.06418
G1 X103.131 Y95.464 E0.07931
G1 X103.489 Y95.357 E0.08751
G1 X103.768 Y95.283 E0.09385
G1 X104.443 Y95.145 E0.10897
G1 X104.789 Y95.105 E0.11662
G1 X105.072 Y95.081 E0.12285
G1 X105.574 Y95.06 E0.13388
G1 X114.426 Y95.06 E0.3282
G1 X114.909 Y95.08 E0.33881
G1 X115.191 Y95.103 E0.34502
G1 X115.873 Y95.198 E0.36013
G1 X116.245 Y95.285 E0.36852
G1 X116.525 Y95.36 E0.37488
G1 X117.481 Y95.707 E0.39721
G1 X117.721 Y95.818 E0.40301
G1 X118.222 Y96.079 E0.41541
G1 X118.689 Y96.378 E0.42759
G1 X118.902 Y96.529 E0.43332
G1 X119.667 Y97.175 E0.4553
G1 X119.856 Y97.364 E0.46117
G1 X120.519 Y98.153 E0.48379
G1 X120.667 Y98.364 E0.48945
G1 X121.18 Y99.248 E0.51188
G1 X121.29 Y99.482 E0.51756
G1 X121.546 Y100.122 E0.53269
G1 X121.655 Y100.484 E0.54099
G1 X121.719 Y100.725 E0.54646
G1 X121.895 Y101.727 E0.56879
G1 X121.917 Y101.976 E0.57428
G1 X121.94 Y102.499 E0.58577
G1 X121.94 Y113.562 E0.82862
G1 X121.918 Y114.067 E0.83972
G1 X121.894 Y114.348 E0.84591
G1 X121.718 Y115.364 E0.86855
G1 X121.651 Y115.617 E0.87429
G1 X121.302 Y116.587 E0.89692
G1 X121.199 Y116.81 E0.90231
G1 X120.874 Y117.417 E0.91743
G1 X120.676 Y117.72 E0.92537
G1 X120.537 Y117.919 E0.9307
G1 X120.11 Y118.46 E0.94583
G1 X119.855 Y118.731 E0.954
G1 X119.688 Y118.897 E0.95917
G1 X118.908 Y119.549 E0.98149
G1 X118.721 Y119.68 E0.9865
G1 X117.839 Y120.191 E1.00887
G1 X117.624 Y120.292 E1.01409
G1 X116.984 Y120.549 E1.02923
G1 X116.625 Y120.656 E1.03745
G1 X116.392 Y120.718 E1.04274
G1 X115.376 Y120.896 E1.06539
G1 X115.121 Y120.918 E1.071
G1 X114.61 Y120.94 E1.08223
G1 X105.39 Y120.94 E1.28463
G1 X104.879 Y120.918 E1.29585
G1 X104.624 Y120.896 E1.30147
G1 X103.608 Y120.718 E1.32412
G1 X103.375 Y120.656 E1.32941
G1 X102.72 Y120.441 E1.34454
G1 X102.376 Y120.292 E1.35277
G1 X102.161 Y120.191 E1.35798
G1 X101.279 Y119.68 E1.38036
G1 X101.092 Y119.549 E1.38537
G1 X100.312 Y118.897 E1.40769
G1 X100.143 Y118.729 E1.41292
G1 X99.684 Y118.215 E1.42805
G1 X99.455 Y117.909 E1.43644
G1 X99.32 Y117.715 E1.44163
G1 X98.96 Y117.127 E1.45676
G1 X98.805 Y116.817 E1.46437
G1 X98.699 Y116.588 E1.46991
G1 X98.447 Y115.947 E1.48503
G1 X98.342 Y115.592 E1.49315
G1 X98.276 Y115.339 E1.49889
G1 X98.106 Y114.355 E1.52081
G1 X98.082 Y114.079 E1.5269
G1 X98.06 Y113.564 E1.53821
G1 X98.06 Y102.501 E1.78106
G1 X98.083 Y101.982 E1.79247
G1 X98.105 Y101.731 E1.798
G1 X98.277 Y100.741 E1.82006
G1 X98.339 Y100.505 E1.82541
G1 X98.552 Y99.85 E1.84053
G1 X98.709 Y99.485 E1.84925
G1 X98.821 Y99.247 E1.85503
G1 X99.313 Y98.394 E1.87664
G1 X99.455 Y98.189 E1.88212
G1 X99.88 Y97.646 E1.89725
G1 X100.115 Y97.393 E1.90483
G0 F6000 X100.428 Y97.703
G1 F1200 X100.613 Y97.516 E1.91061
G1 X101.087 Y97.089 E1.92461
G1 X101.388 Y96.862 E1.93289
G1 X101.596 Y96.716 E1.93847
G1 X102.422 Y96.238 E1.95942
G1 X102.678 Y96.118 E1.96562
G1 X103.602 Y95.782 E1.98721
G1 X103.881 Y95.708 E1.99354
G1 X104.826 Y95.544 E2.0146
G1 X105.109 Y95.52 E2.02083
G1 X105.574 Y95.5 E2.03105
G1 X114.426 Y95.5 E2.22537
G1 X114.873 Y95.518 E2.23519
G1 X115.155 Y95.541 E2.2414
G1 X116.131 Y95.71 E2.26314
G1 X116.411 Y95.785 E2.2695
G1 X117.297 Y96.106 E2.29019
G1 X117.537 Y96.217 E2.29599
G1 X118.002 Y96.46 E2.30751
G1 X118.435 Y96.737 E2.3188
G1 X118.648 Y96.888 E2.32453
G1 X119.356 Y97.486 E2.34487
G1 X119.545 Y97.675 E2.35074
G1 X120.159 Y98.406 E2.37169
G1 X120.307 Y98.617 E2.37735
G1 X120.781 Y99.435 E2.3981
G1 X120.891 Y99.669 E2.40378
G1 X121.23 Y100.597 E2.42547
G1 X121.294 Y100.838 E2.43094
G1 X121.457 Y101.766 E2.45163
G1 X121.479 Y102.015 E2.45711
G1 X121.5 Y102.499 E2.46775
G1 X121.5 Y113.562 E2.7106
G1 X121.48 Y114.03 E2.72088
G1 X121.456 Y114.311 E2.72707
G1 X121.293 Y115.251 E2.74801
G1 X121.226 Y115.504 E2.75376
G1 X120.902 Y116.402 E2.77472
G1 X120.799 Y116.625 E2.78011
G1 X120.315 Y117.468 E2.80145
G1 X120.176 Y117.667 E2.80678
G1 X119.544 Y118.419 E2.82834
G1 X119.377 Y118.585 E2.83351
G1 X118.656 Y119.189 E2.85415
G1 X118.469 Y119.32 E2.85917
G1 X117.652 Y119.793 E2.87989
G1 X117.437 Y119.894 E2.8851
G1 X116.512 Y120.231 E2.90672
G1 X116.279 Y120.293 E2.91201
G1 X115.338 Y120.458 E2.93298
G1 X115.083 Y120.48 E2.9386
G1 X114.61 Y120.5 E2.94899
G1 X105.39 Y120.5 E3.15139
G1 X104.917 Y120.48 E3.16178
G1 X104.662 Y120.458 E3.1674
G1 X103.721 Y120.293 E3.18837
G1 X103.488 Y120.231 E3.19366
G1 X102.563 Y119.894 E3.21527
G1 X102.348 Y119.793 E3.22049
G1 X101.531 Y119.32 E3.24121
G1 X101.344 Y119.189 E3.24622
G1 X100.622 Y118.585 E3.26689
G1 X100.453 Y118.417 E3.27212
G1 X99.816 Y117.658 E3.29387
G1 X99.681 Y117.464 E3.29906
G1 X99.205 Y116.632 E3.3201
G1 X99.099 Y116.403 E3.32564
G1 X98.768 Y115.481 E3.34714
G1 X98.702 Y115.228 E3.35288
G1 X98.545 Y114.316 E3.3732
G1 X98.521 Y114.04 E3.37928
G1 X98.5 Y113.564 E3.38974
G1 X98.5 Y102.501 E3.63259
G1 X98.521 Y102.021 E3.64313
G1 X98.543 Y101.77 E3.64867
G1 X98.703 Y100.853 E3.6691
G1 X98.765 Y100.617 E3.67446
G1 X98.971 Y99.987 E3.68901
G1 X99.107 Y99.672 E3.69654
G1 X99.219 Y99.434 E3.70231
G1 X99.675 Y98.644 E3.72233
G1 X99.817 Y98.439 E3.72781
G1 X100.428 Y97.703 E3.74881
G0 F6000 X100.741 Y98.012
G1 F1200 X100.926 Y97.825 E3.75458
G1 X101.362 Y97.433 E3.76745
G1 X101.641 Y97.222 E3.77513
G1 X101.849 Y97.076 E3.78071
G1 X102.608 Y96.636 E3.79997
G1 X102.864 Y96.516 E3.80617
G1 X103.715 Y96.207 E3.82605
G1 X103.994 Y96.133 E3.83238
G1 X104.863 Y95.982 E3.85175
G1 X105.146 Y95.958 E3.85798
G1 X105.574 Y95.94 E3.86739
G1 X114.426 Y95.94 E4.0617
G1 X114.837 Y95.957 E4.07073
G1 X115.119 Y95.98 E4.07694
G1 X116.017 Y96.135 E4.09695
G1 X116.297 Y96.21 E4.10331
G1 X117.112 Y96.505 E4.12234
G1 X117.352 Y96.616 E4.12814
G1 X117.783 Y96.841 E4.13881
G1 X118.18 Y97.096 E4.14917
G1 X118.393 Y97.247 E4.1549
G1 X119.045 Y97.797 E4.17363
G1 X119.234 Y97.986 E4.17949
G1 X119.799 Y98.658 E4.19877
G1 X119.947 Y98.869 E4.20443
G1 X120.383 Y99.622 E4.22353
G1 X120.493 Y99.856 E4.2292
G1 X120.804 Y100.71 E4.24915
G1 X120.868 Y100.951 E4.25463
G1 X121.018 Y101.805 E4.27366
G1 X121.04 Y102.054 E4.27915
G1 X121.06 Y102.499 E4.28893
G1 X121.06 Y113.562 E4.53178
G1 X121.042 Y113.993 E4.54125
G1 X121.018 Y114.274 E4.54744
G1 X120.867 Y115.138 E4.56669
G1 X120.8 Y115.391 E4.57244
G1 X120.503 Y116.218 E4.59173
G1 X120.4 Y116.441 E4.59712
G1 X119.954 Y117.217 E4.61677
G1 X119.815 Y117.416 E4.62209
G1 X119.234 Y118.107 E4.64191
G1 X119.067 Y118.273 E4.64708
G1 X118.403 Y118.828 E4.66608
G1 X118.216 Y118.959 E4.67109
G1 X117.464 Y119.395 E4.69017
G1 X117.249 Y119.496 E4.69539
G1 X116.399 Y119.806 E4.71525
G1 X116.166 Y119.868 E4.72054
G1 X115.3 Y120.019 E4.73984
G1 X115.045 Y120.041 E4.74546
G1 X114.61 Y120.06 E4.75501
G1 X105.39 Y120.06 E4.95741
G1 X104.955 Y120.041 E4.96697
G1 X104.7 Y120.019 E4.97258
G1 X103.834 Y119.868 E4.99188
G1 X103.601 Y119.806 E4.99717
G1 X102.751 Y119.496 E5.01704
G1 X102.536 Y119.395 E5.02225
G1 X101.784 Y118.959 E5.04133
G1 X101.597 Y118.828 E5.04634
G1 X100.933 Y118.273 E5.06534
G1 X100.764 Y118.105 E5.07057
G1 X100.178 Y117.406 E5.09059
G1 X100.043 Y117.212 E5.09578
G1 X99.604 Y116.448 E5.11513
G1 X99.498 Y116.219 E5.12066
G1 X99.194 Y115.37 E5.14046
G1 X99.128 Y115.117 E5.1462
G1 X98.983 Y114.278 E5.16489
G1 X98.959 Y114.002 E5.17097
G1 X98.94 Y113.564 E5.1806
G1 X98.94 Y102.501 E5.42345
G1 X98.959 Y102.059 E5.43316
G1 X98.981 Y101.808 E5.43869
G1 X99.128 Y100.964 E5.4575
G1 X99.19 Y100.728 E5.46285
G1 X99.506 Y99.859 E5.48315
G1 X99.618 Y99.621 E5.48892
G1 X100.036 Y98.895 E5.50731
G1 X100.178 Y98.69 E5.51279
G1 X100.741 Y98.012 E5.53213
G0 F6000 X101.054 Y98.322
G1 F1200 X101.239 Y98.135 E5.53791
G1 X101.637 Y97.776 E5.54967
G1 X101.894 Y97.583 E5.55673
G1 X102.102 Y97.437 E5.56231
G1 X102.795 Y97.035 E5.57989
G1 X103.051 Y96.915 E5.5861
G1 X103.828 Y96.632 E5.60425
G1 X104.107 Y96.558 E5.61059
G1 X104.901 Y96.421 E5.62828
G1 X105.184 Y96.397 E5.63451
G1 X105.574 Y96.38 E5.64308
G1 X114.426 Y96.38 E5.8374
G1 X114.802 Y96.395 E5.84566
G1 X115.084 Y96.418 E5.85187
G1 X115.903 Y96.56 E5.87012
G1 X116.183 Y96.635 E5.87648
G1 X116.927 Y96.905 E5.89385
G1 X117.167 Y97.016 E5.89966
G1 X117.563 Y97.222 E5.90946
G1 X117.926 Y97.455 E5.91893
G1 X118.139 Y97.606 E5.92466
G1 X118.734 Y98.108 E5.94175
G1 X118.923 Y98.297 E5.94761
G1 X119.438 Y98.911 E5.9652
G1 X119.586 Y99.122 E5.97086
G1 X119.985 Y99.81 E5.98832
G1 X120.095 Y100.044 E5.994
G1 X120.379 Y100.823 E6.0122
G1 X120.443 Y101.064 E6.01767
G1 X120.58 Y101.843 E6.03503
G1 X120.602 Y102.092 E6.04052
G1 X120.62 Y102.499 E6.04947
G1 X120.62 Y113.562 E6.29232
G1 X120.603 Y113.955 E6.30095
G1 X120.579 Y114.236 E6.30714
G1 X120.442 Y115.026 E6.32474
G1 X120.375 Y115.279 E6.33049
G1 X120.103 Y116.033 E6.34808
G1 X120 Y116.256 E6.35348
G1 X119.594 Y116.965 E6.37141
G1 X119.455 Y117.164 E6.37674
G1 X118.924 Y117.795 E6.39484
G1 X118.757 Y117.961 E6.40001
G1 X118.151 Y118.468 E6.41736
G1 X117.964 Y118.599 E6.42237
G1 X117.277 Y118.997 E6.4398
G1 X117.062 Y119.098 E6.44501
G1 X116.286 Y119.381 E6.46314
G1 X116.053 Y119.443 E6.46844
G1 X115.262 Y119.581 E6.48606
G1 X115.007 Y119.603 E6.49168
G1 X114.61 Y119.62 E6.5004
G1 X105.39 Y119.62 E6.7028
G1 X104.993 Y119.603 E6.71152
G1 X104.738 Y119.581 E6.71714
G1 X103.947 Y119.443 E6.73477
G1 X103.714 Y119.381 E6.74006
G1 X102.938 Y119.098 E6.75819
G1 X102.723 Y118.997 E6.7634
G1 X102.036 Y118.599 E6.78083
G1 X101.849 Y118.468 E6.78585
G1 X101.243 Y117.961 E6.80319
G1 X101.074 Y117.793 E6.80842
G1 X100.539 Y117.155 E6.8267
G1 X100.404 Y116.961 E6.83189
G1 X100.003 Y116.263 E6.84956
G1 X99.897 Y116.034 E6.8551
G1 X99.62 Y115.259 E6.87316
G1 X99.554 Y115.006 E6.8789
G1 X99.421 Y114.24 E6.89597
G1 X99.397 Y113.964 E6.90205
G1 X99.38 Y113.564 E6.91084
G1 X99.38 Y102.501 E7.15369
G1 X99.398 Y102.098 E7.16255
G1 X99.42 Y101.847 E7.16808
G1 X99.554 Y101.076 E7.18526
G1 X99.616 Y100.84 E7.19061
G1 X99.904 Y100.047 E7.20913
G1 X100.016 Y99.809 E7.21491
G1 X100.398 Y99.145 E7.23172
G1 X100.54 Y98.94 E7.2372
G1 X101.054 Y98.322 E7.25484
G0 F6000 X101.366 Y98.631
G1 F1200 X101.551 Y98.444 E7.26062
G1 X101.912 Y98.12 E7.27126
G1 X102.147 Y97.943 E7.27772
G1 X102.355 Y97.797 E7.2833
G1 X102.982 Y97.433 E7.29922
G1 X103.238 Y97.313 E7.30542
G1 X103.94 Y97.058 E7.32182
G1 X104.219 Y96.984 E7.32815
G1 X104.938 Y96.859 E7.34417
G1 X105.221 Y96.835 E7.35041
G1 X105.574 Y96.82 E7.35816
G1 X114.426 Y96.82 E7.55248
G1 X114.766 Y96.834 E7.55995
G1 X115.048 Y96.857 E7.56616
G1 X115.79 Y96.985 E7.58269
G1 X116.07 Y97.06 E7.58905
G1 X116.743 Y97.304 E7.60477
G1 X116.983 Y97.415 E7.61057
G1 X117.343 Y97.603 E7.61949
G1 X117.671 Y97.814 E7.62805
G1 X117.884 Y97.965 E7.63378
G1 X118.423 Y98.419 E7.64925
G1 X118.612 Y98.608 E7.65512
G1 X119.078 Y99.164 E7.67104
G1 X119.226 Y99.375 E7.6767
G1 X119.587 Y99.997 E7.69249
G1 X119.697 Y100.231 E7.69816
G1 X119.954 Y100.936 E7.71464
G1 X120.018 Y101.177 E7.72011
G1 X120.142 Y101.882 E7.73582
G1 X120.164 Y102.131 E7.74131
G1 X120.18 Y102.499 E7.7494
G1 X120.18 Y113.562 E7.99225
G1 X120.165 Y113.918 E8.00007
G1 X120.141 Y114.199 E8.00626
G1 X120.017 Y114.913 E8.02217
G1 X119.95 Y115.166 E8.02791
G1 X119.704 Y115.849 E8.04385
G1 X119.601 Y116.072 E8.04924
G1 X119.233 Y116.713 E8.06547
G1 X119.094 Y116.912 E8.0708
G1 X118.614 Y117.483 E8.08717
G1 X118.447 Y117.649 E8.09234
G1 X117.898 Y118.108 E8.10805
G1 X117.711 Y118.239 E8.11306
G1 X117.09 Y118.598 E8.12881
G1 X116.875 Y118.699 E8.13402
G1 X116.173 Y118.955 E8.15042
G1 X115.94 Y119.017 E8.15572
G1 X115.224 Y119.143 E8.17167
G1 X114.969 Y119.165 E8.17729
G1 X114.61 Y119.18 E8.18518
G1 X105.39 Y119.18 E8.38758
G1 X105.031 Y119.165 E8.39546
G1 X104.776 Y119.143 E8.40108
G1 X104.06 Y119.017 E8.41704
G1 X103.827 Y118.955 E8.42233
G1 X103.125 Y118.699 E8.43874
G1 X102.91 Y118.598 E8.44395
G1 X102.289 Y118.239 E8.4597
G1 X102.102 Y118.108 E8.46471
G1 X101.553 Y117.648 E8.48043
G1 X101.384 Y117.48 E8.48566
G1 X100.9 Y116.904 E8.50218
G1 X100.765 Y116.71 E8.50737
G1 X100.403 Y116.078 E8.52335
G1 X100.297 Y115.849 E8.52889
G1 X100.045 Y115.148 E8.54525
G1 X99.979 Y114.895 E8.55099
G1 X99.86 Y114.202 E8.56642
G1 X99.836 Y113.926 E8.5725
G1 X99.82 Y113.564 E8.58046
G1 X99.82 Y102.501 E8.82331
G1 X99.836 Y102.136 E8.83133
G1 X99.858 Y101.885 E8.83686
G1 X99.979 Y101.188 E8.85239
G1 X100.041 Y100.952 E8.85774
G1 X100.302 Y100.234 E8.87451
G1 X100.414 Y99.996 E8.88029
G1 X100.76 Y99.396 E8.89549
G1 X100.902 Y99.191 E8.90097
G1 X101.366 Y98.631 E8.91693
G0 F6000 X101.679 Y98.941
G1 F1200 X101.864 Y98.754 E8.92271
G1 X102.187 Y98.464 E8.93223
G1 X102.399 Y98.303 E8.93808
G1 X102.607 Y98.157 E8.94366
G1 X103.169 Y97.832 E8.95791
G1 X103.425 Y97.712 E8.96411
G1 X104.053 Y97.483 E8.97879
G1 X104.332 Y97.409 E8.98512
G1 X104.975 Y97.297 E8.99945
G1 X105.258 Y97.273 E9.00569
G1 X105.574 Y97.26 E9.01263
G1 X114.426 Y97.26 E9.20695
G1 X114.73 Y97.272 E9.21362
G1 X115.012 Y97.295 E9.21983
G1 X115.676 Y97.41 E9.23463
G1 X115.956 Y97.485 E9.24099
G1 X116.558 Y97.703 E9.25505
G1 X116.798 Y97.814 E9.26085
G1 X117.123 Y97.984 E9.2689
G1 X117.417 Y98.173 E9.27657
G1 X117.63 Y98.324 E9.28231
G1 X118.112 Y98.73 E9.29614
G1 X118.301 Y98.919 E9.30201
G1 X118.718 Y99.416 E9.31625
G1 X118.866 Y99.627 E9.32191
G1 X119.189 Y100.184 E9.33604
G1 X119.299 Y100.418 E9.34172
G1 X119.529 Y101.049 E9.35646
G1 X119.593 Y101.29 E9.36193
G1 X119.703 Y101.921 E9.37599
G1 X119.725 Y102.17 E9.38148
G1 X119.74 Y102.499 E9.38871
G1 X119.74 Y113.562 E9.63156
G1 X119.726 Y113.88 E9.63855
G1 X119.702 Y114.161 E9.64474
G1 X119.591 Y114.8 E9.65898
G1 X119.524 Y115.053 E9.66472
G1 X119.304 Y115.664 E9.67898
G1 X119.201 Y115.887 E9.68437
G1 X118.872 Y116.461 E9.69889
G1 X118.733 Y116.66 E9.70422
G1 X118.304 Y117.171 E9.71887
G1 X118.137 Y117.337 E9.72404
G1 X117.646 Y117.747 E9.73808
G1 X117.459 Y117.878 E9.74309
G1 X116.903 Y118.2 E9.75719
G1 X116.688 Y118.301 E9.76241
G1 X116.06 Y118.53 E9.77708
G1 X115.827 Y118.592 E9.78238
G1 X115.186 Y118.704 E9.79666
G1 X114.931 Y118.726 E9.80228
G1 X114.61 Y118.74 E9.80933
G1 X105.39 Y118.74 E10.01173
G1 X105.069 Y118.726 E10.01878
G1 X104.814 Y118.704 E10.0244
G1 X104.173 Y118.592 E10.03868
G1 X103.94 Y118.53 E10.04397
G1 X103.312 Y118.301 E10.05865
G1 X103.097 Y118.2 E10.06386
G1 X102.541 Y117.878 E10.07797
G1 X102.354 Y117.747 E10.08298
G1 X101.863 Y117.336 E10.09703
G1 X101.694 Y117.168 E10.10227
G1 X101.261 Y116.652 E10.11705
G1 X101.126 Y116.458 E10.12224
G1 X100.802 Y115.893 E10.13654
G1 X100.696 Y115.664 E10.14208
G1 X100.471 Y115.037 E10.1567
G1 X100.405 Y114.784 E10.16244
G1 X100.298 Y114.164 E10.17625
G1 X100.274 Y113.888 E10.18233
G1 X100.26 Y113.564 E10.18945
G1 X100.26 Y102.501 E10.4323
G1 X100.274 Y102.174 E10.43949
G1 X100.296 Y101.923 E10.44502
G1 X100.405 Y101.3 E10.4589
G1 X100.467 Y101.064 E10.46426
G1 X100.7 Y100.422 E10.47925
G1 X100.812 Y100.184 E10.48503
G1 X101.122 Y99.646 E10.49866
G1 X101.264 Y99.441 E10.50413
G1 X101.679 Y98.941 E10.51839
G0 F6000 X101.992 Y99.25
G1 F1200 X102.177 Y99.063 E10.52417
G1 X102.462 Y98.807 E10.53258
G1 X102.652 Y98.663 E10.53781
G1 X102.86 Y98.517 E10.54339
G1 X103.355 Y98.23 E10.55595
G1 X103.611 Y98.11 E10.56216
